X:543
T:
C:Pucksson
S:Af Pucksson; uppt. af samlaren, såsom Pucksson själv föredragit den.
R:vals
M:3/4
L:1/8
K:D
A2|(FA) (dF) (Ad)|f2 (dA) F2|(AG) (FG) E2|(BA) (GE) D2|
(FA) (dF) (Ad)|f2 (dA) F2|(AG) (FG) (EF)|D2 z2::DF|
A3 (G FG)|E3 (^DEG)|(BA) (BA) (GE)|D4 AG|(FA) (dF) (Ad)|
f2 (dA) F2|(AG) (FG) (EF)|D4::fg|a2 (fa) (fa)|d'2 (df) a2|
(ge) (ce) g2|(fe) (de) (fg)|a2 (fa) (fa)|d'2 (df) a2|
(ge) (ce) (gf)|d4:|

